X:1
T:Title
%%score { ( 1 3 ) | ( 2 4 ) }
L:1/8
M:4/4
K:Eb
V:1 treble nm="Grand Piano"
V:3 treble 
V:2 bass 
V:4 bass 
V:1
 z4 z2[Q:1/4=100] (3EGA | B3 c B2 [B,DA]2 | [B,EG]2 [B,DA]2 [B,EB]2 (3EGA | B3 c B2 [B,DA]2 | %4
[M:3/4] G2 A2 B2 |[M:1/4] G>B |[M:4/4] e3 e d2 c2 | B2 A2 G2 G>G | F>F B>d [=Af]2 [EFA]2 | %9
 [DFB]6 z2 | B4 A4 | d2- [Ad]2 c2- [Ac]2 | [GB]2 [GB]2 [_Gc]2 .[Gd]2 | [B,GB]2 z2 z4 | B4 A4 | %15
 d2- [Ad]2 e2 [Af]2 | [Ge]2 [Ge]2 [_Gd]2 [Gc]2 | [B,GB]2 E2 G2 B2 | [=Ec]3 C E2 G2 | z4 A2 z2 | %20
 [CFA]3 B, D2 F2 | z4 G2 z2 | G3 G A2 B2 | c2 d2 e2 f2 | e4 d2- [Ad]2 |[M:3/4] [Ge]6 |] %26
V:2
 z4 z2 (3E,G,A, | B,3 C B,2 B,,2 | E,2 F,2 G,2 (3E,G,A, | B,3 C B,2 B,,2 | %4
[M:3/4] [E,B,E]2 [F,B,D]2 [G,B,E]2 |[M:1/4] [E,B,E]>[G,B,E] | %6
[M:4/4] [A,CE]3 [A,CE] [A,B,E]2 [A,E]2 | [G,B,E]2 [F,B,D]2 [E,B,E]2 [E,B,E]>[E,B,E] | %8
 [F,B,D]>[F,B,D] [F,DF]>[F,B,F] [F,C]2 F,2 | B,,6 z2 | [B,,F,]2 [B,,F,]2 [B,,F,]2 [B,,F,]2 | %11
 [B,,B,]2 [B,,B,]2 [B,,B,]2 [B,,B,]2 | [E,B,]2 [E,B,]2 [E,=A,]2 z[K:treble] e | E,2 B,2 G,2 E,2 | %14
 [B,,F,]2 [B,,F,]2 [B,,F,]2 [B,,F,]2 | [B,,B,]2 [B,,B,]2[K:treble] [B,CA]2 [B,D]2 | %16
 [E,E]2 [E,B,]2 [E,=A,]2 [E,A,]2 | E,2 E,2 G,2 B,2 | [C,G,]3 C, =E,2 G,2 | C2 C,2 z2 G2 | %20
 F,3 B,, D,2 F,2 | B,2 B,,2 B,,4 | [E,B,E]3 [E,B,E] [F,B,D]2[K:treble] [G,_DE]2 | %23
 [A,CE]2 [G,=B,G]2 [CG]2 [A,CA]2 | [B,G]4[K:bass] [B,,B,]4 |[M:3/4] [E,B,]6 |] %26
V:3
 x8 | x8 | x8 | x8 |[M:3/4] x6 |[M:1/4] x2 |[M:4/4] x8 | x8 | x8 | x8 | D2 D2 D2 D2 | A2 z2 A2 z2 | %12
 x8 | x8 | D2 D2 D2 D2 | A2 z2 z4 | x8 | x8 | x8 | c2 [C=EB]2 [CE]4 | x8 | %21
 B2 [B,DA]2 [B,D]2- [B,DF]2 | x8 | x8 | z4 F2 z2 |[M:3/4] x6 |] %26
V:4
 x8 | x8 | x8 | x8 |[M:3/4] x6 |[M:1/4] x2 |[M:4/4] x8 | x8 | x8 | x8 | x8 | x8 | %12
 z4 z2 [E,=A,]2[K:treble] | x8 | x8 | x4[K:treble] x4 | x8 | x8 | x8 | z4 C,4 | x8 | x8 | %22
 x6[K:treble] x2 | x8 | x4[K:bass] x4 |[M:3/4] x6 |] %26

